TF1/XpYp.svg

<svg xmlns="http://www.w3.org/2000/svg" viewBox="0 0 1200 800" preserveAspectRatio="none" width="1200" height="800">
 <title>
  ROOT canvas
 </title>
 <rect x="0" y="0" width="1200" height="800" style="fill: none;"></rect>
 <g>
  <g transform="translate(120,80)">
   <title></title>
   <rect x="0" y="0" width="960" height="640" style="fill: white; stroke: black; stroke-width: 1;"></rect>
   <svg x="0" y="0" overflow="hidden" width="960" height="640" viewBox="0 0 960 640">
    <g>
     <path d="M0,372.16c1.57,0.21,6.5,0.75,9.6,1.31s6.62,1.36,9.6,2.17s6.76,2,9.6,3.01s6.92,2.64,9.6,3.82s7.08,3.29,9.6,4.6s7.23,3.93,9.6,5.33s7.37,4.54,9.6,6.01s7.49,5.11,9.6,6.62s7.59,5.61,9.6,7.16s7.66,6.02,9.6,7.59s7.71,6.33,9.6,7.91s7.73,6.51,9.6,8.09s7.72,6.54,9.6,8.12s7.67,6.4,9.6,7.97s7.58,6.07,9.6,7.61s7.43,5.53,9.6,7.03s7.22,4.79,9.6,6.19s6.95,3.88,9.6,5.09s6.66,2.83,9.6,3.7s6.4,1.98,9.6,2.02s6.4,0.1,9.6,0.06s6.76,-1.17,9.6,-2.18s7.3,-3.23,9.6,-4.67s7.86,-5.76,9.6,-7.36s8.31,-8.62,9.6,-10.19s8.63,-11.63,9.6,-13.1s8.85,-14.64,9.6,-15.99s9,-17.52,9.6,-18.76s9.1,-20.15,9.6,-21.31s9.23,-22.48,9.6,-23.5s9.39,-29.1,9.6,-29.89s9.44,-41.82,9.6,-42.51s9.44,-41.17,9.6,-41.88s9.42,-39.73,9.6,-40.47s9.4,-37.46,9.6,-38.24s9.35,-34.33,9.6,-35.18s9.28,-30.38,9.6,-31.33s9.16,-25.64,9.6,-26.74s8.93,-20.21,9.6,-21.51s8.44,-14.22,9.6,-15.76s7.4,-8.16,9.6,-9.65s6.4,-3.28,9.6,-3.33s7.32,1.55,9.6,3s8.36,7.62,9.6,9.17s8.87,13.68,9.6,15.02s9.12,19.24,9.6,20.38s9.24,24.12,9.6,25.13s9.32,28.25,9.6,29.16s9.36,31.55,9.6,32.4s9.38,34.01,9.6,34.81s9.4,35.62,9.6,36.4s9.4,36.42,9.6,37.19s9.4,36.46,9.6,37.24s9.39,35.83,9.6,36.63s9.37,34.62,9.6,35.44s9.35,32.92,9.6,33.78s9.31,30.85,9.6,31.76s9.27,28.51,9.6,29.48s9.21,26,9.6,27.04s9.13,23.4,9.6,24.53s9.04,20.81,9.6,22.03s8.76,18.18,9.6,19.59s8.03,11.09,9.6,12.69s7.32,5.47,9.6,6.92s6.99,4.04,9.6,5.29s6.74,2.9,9.6,3.89s6.57,2.02,9.6,2.73s6.47,1.33,9.6,1.8s6.42,0.81,9.6,1.07s6.4,0.42,9.6,0.54s6.4,0.15,9.6,0.17s6.4,-0.02,9.6,-0.05s6.4,-0.1,9.6,-0.15s6.4,-0.12,9.6,-0.16s6.4,-0.08,9.6,-0.08s6.4,0.01,9.6,0.06s6.4,0.13,9.6,0.25s6.41,0.27,9.6,0.47s6.42,0.43,9.6,0.71s6.44,0.6,9.6,0.96s6.46,0.78,9.6,1.21s6.48,0.95,9.6,1.46s6.51,1.12,9.6,1.7s6.54,1.28,9.6,1.93s6.56,1.43,9.6,2.13s6.59,1.56,9.6,2.32s6.61,1.69,9.6,2.48s6.63,1.79,9.6,2.62s6.65,1.87,9.6,2.72s6.66,1.94,9.6,2.81s6.66,1.98,9.6,2.86s6.67,2.01,9.6,2.89s6.66,2.01,9.6,2.89s6.41,2.67,9.6,2.86s6.56,-1.03,9.6,-1.73s6.63,-1.9,9.6,-2.72s6.61,-1.82,9.6,-2.62s6.59,-1.74,9.6,-2.49s6.57,-1.63,9.6,-2.35s8.08,-1.83,9.6,-2.18" style="fill: none; stroke: blue; stroke-width: 6;"></path>
    </g>
   </svg>
   <g>
    <g>
     <line x1="0" y1="0" x2="960" y2="0" style="stroke: black; stroke-width: 1;"></line>
     <path d="M39,0v12m48,-12v12m49,-12v12m48,-12v24m49,-24v12m48,-12v12m49,-12v12m48,-12v24m49,-24v12m48,-12v12m49,-12v12m48,-12v24m49,-24v12m48,-12v12m49,-12v12m48,-12v24m49,-24v12m48,-12v12m49,-12v12m48,-12v24" style="stroke: black; stroke-width: 1;"></path>
     <g font-family="Arial" font-size="28" space="preserve">
      <text fill="black" text-anchor="middle" transform="translate(184,-6)">
       2
      </text>
      <text fill="black" text-anchor="middle" transform="translate(378,-6)">
       4
      </text>
      <text fill="black" text-anchor="middle" transform="translate(572,-6)">
       6
      </text>
      <text fill="black" text-anchor="middle" transform="translate(766,-6)">
       8
      </text>
      <text fill="black" text-anchor="middle" transform="translate(960,-6)">
       10
      </text>
     </g>
    </g>
    <g transform="translate(960,0)">
     <line x1="0" y1="0" x2="0" y2="640" style="stroke: black; stroke-width: 1;"></line>
     <path d="M0,627h-18m18,-13h-18m18,-14h-18m18,-13h-18m18,-14h-36m36,-13h-18m18,-13h-18m18,-14h-18m18,-13h-18m18,-14h-36m36,-13h-18m18,-14h-18m18,-13h-18m18,-14h-18m18,-13h-36m36,-13h-18m18,-14h-18m18,-13h-18m18,-14h-18m18,-13h-36m36,-14h-18m18,-13h-18m18,-14h-18m18,-13h-18m18,-14h-36m36,-13h-18m18,-13h-18m18,-14h-18m18,-13h-18m18,-14h-36m36,-13h-18m18,-14h-18m18,-13h-18m18,-14h-18m18,-13h-36m36,-13h-18m18,-14h-18m18,-13h-18m18,-14h-18m18,-13h-36m36,-14h-18m18,-13h-18m18,-14h-18m18,-13h-18m18,-14h-36m36,-13h-18m18,-13h-18" style="stroke: black; stroke-width: 1;"></path>
     <g font-family="Arial" font-size="28" space="preserve">
      <text fill="black" text-anchor="start" dy=".4em" transform="translate(4,573)">
       5
      </text>
      <text fill="black" text-anchor="start" dy=".4em" transform="translate(4,506)">
       10
      </text>
      <text fill="black" text-anchor="start" dy=".4em" transform="translate(4,439)">
       15
      </text>
      <text fill="black" text-anchor="start" dy=".4em" transform="translate(4,372)">
       20
      </text>
      <text fill="black" text-anchor="start" dy=".4em" transform="translate(4,304)">
       25
      </text>
      <text fill="black" text-anchor="start" dy=".4em" transform="translate(4,237)">
       30
      </text>
      <text fill="black" text-anchor="start" dy=".4em" transform="translate(4,170)">
       35
      </text>
      <text fill="black" text-anchor="start" dy=".4em" transform="translate(4,103)">
       40
      </text>
      <text fill="black" text-anchor="start" dy=".4em" transform="translate(4,35)">
       45
      </text>
     </g>
    </g>
   </g>
  </g>
  <g transform="translate(120,4)" font-family="Arial" font-size="40" space="preserve">
   <path d="M0,0h960v53h-960z" style="fill: none;"></path>
   <text fill="black" text-anchor="middle" dy=".8em" transform="translate(480,0)">
    x*gaus(0)+[3]*form1
   </text>
  </g>
 </g>
</svg>

<svg xmlns="http://www.w3.org/2000/svg" viewBox="0 0 1200 800" preserveAspectRatio="none" width="1200" height="800">
 <title>
  ROOT canvas
 </title>
 <rect x="0" y="0" width="1200" height="800" style="fill: none;"></rect>
 <g>
  <g transform="translate(120,80)">
   <title></title>
   <rect x="0" y="0" width="960" height="640" style="fill: white; stroke: black; stroke-width: 1;"></rect>
   <svg x="0" y="0" overflow="hidden" width="960" height="640" viewBox="0 0 960 640">
    <g>
     <path d="M0,372.16C1.57,372.37,6.5,372.91,9.6,373.47S16.22,374.83,19.2,375.64S25.96,377.64,28.8,378.65S35.72,381.29,38.4,382.47S45.48,385.76,48,387.07S55.23,391,57.6,392.4S64.97,396.94,67.2,398.41S74.69,403.52,76.8,405.04S84.39,410.65,86.4,412.19S94.06,418.22,96,419.78S103.71,426.11,105.6,427.69S113.33,434.2,115.2,435.78S122.92,442.32,124.8,443.9S132.47,450.3,134.4,451.86S141.98,457.93,144,459.47S151.43,465,153.6,466.5S160.82,471.29,163.2,472.69S170.15,476.57,172.8,477.78S179.46,480.6,182.4,481.48S188.8,483.46,192,483.51S198.4,483.61,201.6,483.56S208.36,482.4,211.2,481.38S218.5,478.16,220.8,476.72S228.66,470.95,230.4,469.36S238.71,460.74,240,459.17S248.63,447.54,249.6,446.06S258.45,431.43,259.2,430.07S268.2,412.55,268.8,411.31S277.9,391.16,278.4,390S287.63,367.52,288,366.5S297.39,337.4,297.6,336.61S307.04,294.79,307.2,294.1S316.64,252.93,316.8,252.22S326.22,212.49,326.4,211.75S335.8,174.3,336,173.51S345.35,139.18,345.6,138.33S354.88,107.95,355.2,107S364.36,81.36,364.8,80.26S373.73,60.05,374.4,58.75S382.84,44.53,384,42.99S391.4,34.82,393.6,33.34S400,30.06,403.2,30.01S410.52,31.56,412.8,33.01S421.16,40.62,422.4,42.18S431.27,55.86,432,57.2S441.12,76.43,441.6,77.58S450.84,101.7,451.2,102.71S460.52,130.95,460.8,131.86S470.16,163.41,470.4,164.26S479.78,198.27,480,199.07S489.4,234.69,489.6,235.47S499,271.89,499.2,272.67S508.6,309.13,508.8,309.91S518.19,345.74,518.4,346.54S527.77,381.15,528,381.98S537.35,414.9,537.6,415.76S546.91,446.61,547.2,447.52S556.47,476.03,556.8,477S566.01,503,566.4,504.05S575.53,527.45,576,528.58S585.04,549.39,585.6,550.6S594.36,568.78,595.2,570.19S603.23,581.28,604.8,582.88S612.12,588.36,614.4,589.81S621.39,593.85,624,595.09S630.74,598,633.6,598.98S640.17,601,643.2,601.71S649.67,603.04,652.8,603.51S659.22,604.32,662.4,604.58S668.8,605,672,605.12S678.4,605.27,681.6,605.29S688,605.28,691.2,605.24S697.6,605.14,700.8,605.09S707.2,604.97,710.4,604.93S716.8,604.85,720,604.85S726.4,604.86,729.6,604.91S736,605.04,739.2,605.16S745.61,605.43,748.8,605.63S755.22,606.06,758.4,606.34S764.84,606.94,768,607.3S774.46,608.07,777.6,608.51S784.08,609.46,787.2,609.97S793.71,611.09,796.8,611.67S803.34,612.95,806.4,613.6S812.96,615.03,816,615.73S822.59,617.3,825.6,618.05S832.21,619.73,835.2,620.53S841.83,622.32,844.8,623.14S851.45,625.02,854.4,625.87S861.06,627.81,864,628.67S870.66,630.66,873.6,631.54S880.27,633.54,883.2,634.42S889.86,636.43,892.8,637.31S899.21,639.98,902.4,640.17S908.96,639.15,912,638.44S918.63,636.54,921.6,635.72S928.21,633.89,931.2,633.1S937.79,631.36,940.8,630.6S947.37,628.97,950.4,628.25S958.48,626.42,960,626.08" style="fill: none; stroke: blue; stroke-width: 6;"></path>
    </g>
   </svg>
   <g>
    <g>
     <line x1="0" y1="0" x2="960" y2="0" style="stroke: black; stroke-width: 1;"></line>
     <path d="M39,0v12m48,-12v12m49,-12v12m48,-12v24m49,-24v12m48,-12v12m49,-12v12m48,-12v24m49,-24v12m48,-12v12m49,-12v12m48,-12v24m49,-24v12m48,-12v12m49,-12v12m48,-12v24m49,-24v12m48,-12v12m49,-12v12m48,-12v24" style="stroke: black; stroke-width: 1;"></path>
     <g font-family="Arial" font-size="28" space="preserve">
      <text fill="black" text-anchor="middle" transform="translate(184,-6)">
       2
      </text>
      <text fill="black" text-anchor="middle" transform="translate(378,-6)">
       4
      </text>
      <text fill="black" text-anchor="middle" transform="translate(572,-6)">
       6
      </text>
      <text fill="black" text-anchor="middle" transform="translate(766,-6)">
       8
      </text>
      <text fill="black" text-anchor="middle" transform="translate(960,-6)">
       10
      </text>
     </g>
    </g>
    <g transform="translate(960,0)">
     <line x1="0" y1="0" x2="0" y2="640" style="stroke: black; stroke-width: 1;"></line>
     <path d="M0,627h-18m18,-13h-18m18,-14h-18m18,-13h-18m18,-14h-36m36,-13h-18m18,-13h-18m18,-14h-18m18,-13h-18m18,-14h-36m36,-13h-18m18,-14h-18m18,-13h-18m18,-14h-18m18,-13h-36m36,-13h-18m18,-14h-18m18,-13h-18m18,-14h-18m18,-13h-36m36,-14h-18m18,-13h-18m18,-14h-18m18,-13h-18m18,-14h-36m36,-13h-18m18,-13h-18m18,-14h-18m18,-13h-18m18,-14h-36m36,-13h-18m18,-14h-18m18,-13h-18m18,-14h-18m18,-13h-36m36,-13h-18m18,-14h-18m18,-13h-18m18,-14h-18m18,-13h-36m36,-14h-18m18,-13h-18m18,-14h-18m18,-13h-18m18,-14h-36m36,-13h-18m18,-13h-18" style="stroke: black; stroke-width: 1;"></path>
     <g font-family="Arial" font-size="28" space="preserve">
      <text fill="black" text-anchor="start" dy=".4em" transform="translate(4,573)">
       5
      </text>
      <text fill="black" text-anchor="start" dy=".4em" transform="translate(4,506)">
       10
      </text>
      <text fill="black" text-anchor="start" dy=".4em" transform="translate(4,439)">
       15
      </text>
      <text fill="black" text-anchor="start" dy=".4em" transform="translate(4,372)">
       20
      </text>
      <text fill="black" text-anchor="start" dy=".4em" transform="translate(4,304)">
       25
      </text>
      <text fill="black" text-anchor="start" dy=".4em" transform="translate(4,237)">
       30
      </text>
      <text fill="black" text-anchor="start" dy=".4em" transform="translate(4,170)">
       35
      </text>
      <text fill="black" text-anchor="start" dy=".4em" transform="translate(4,103)">
       40
      </text>
      <text fill="black" text-anchor="start" dy=".4em" transform="translate(4,35)">
       45
      </text>
     </g>
    </g>
   </g>
  </g>
  <g transform="translate(120,4)" font-family="Arial" font-size="40" space="preserve">
   <path d="M0,0h960v53h-960z" style="fill: none;"></path>
   <text fill="black" text-anchor="middle" dy=".8em" transform="translate(480,0)">
    x*gaus(0)+[3]*form1
   </text>
  </g>
 </g>
</svg>
